img/centralized-earth.svg

<?xml version="1.0" encoding="UTF-8"?>
<svg width="499px" height="289px" viewBox="0 0 499 289" version="1.1" xmlns="http://www.w3.org/2000/svg" xmlns:xlink="http://www.w3.org/1999/xlink">
    <!-- Generator: Sketch 49.1 (51147) - http://www.bohemiancoding.com/sketch -->
    <title>centralized-earth</title>
    <desc>Created with Sketch.</desc>
    <defs>
        <circle id="path-1" cx="155.5" cy="99.5" r="15.5"></circle>
    </defs>
    <g id="Page-1" stroke="none" stroke-width="1" fill="none" fill-rule="evenodd">
        <g id="centralized-earth">
            <g id="earth-copy">
                <path d="M498.282309,235.224933 C498.528322,239.760391 498.652925,244.328146 498.652925,248.925003 C498.652925,261.87128 497.664606,274.586724 495.759301,287 L350.576471,287 L350.441406,286.835938 L346.955078,281.8125 L346.955078,253.080078 L343.912109,245.113281 L343.912109,237.396484 L346.955078,232.53125 L350.441406,228.462891 L355.199219,220.263672 L358.714844,220.263672 L364.191406,211.179688 L369.46875,205.53125 L372.498047,200.623047 L374.876953,195.306641 L377.955078,187.125 L380.951172,183.160156 L402.677734,183.160156 L409.150391,187.125 L412.103516,187.125 L418.910156,195.306641 L421.674805,200.623047 L428.384766,205.53125 L438.283203,205.53125 L440.554687,211.179688 L445.007812,211.179688 L464.423828,224.726562 L479.416016,224.726562 L491.177734,228.462891 L491.177734,232.53125 L498.282309,235.224933 Z" id="africa" fill="#3FDFA0"></path>
                <path d="M344.519531,21.1601562 L346.925781,29.8203125 L346.925781,32.8515625 L349.548828,38.9121094 L341.044922,42.5644531 L332.416016,45.21875 L327.619141,47.3320312 L323.347656,54.09375 L323.347656,58.9199219 L320.902344,65.5957031 L317.416016,67.6503906 L308.857422,65.5957031 L303.015625,62.1777344 L293.310547,58.9199219 L281.886719,56.5097656 L275.583984,49.6816406 L272.498047,42.5644531 L268.412109,32.8515625 L256.986328,23.4980469 L246.695313,16.6992188 L226.736328,13.1445312 L214.5,13.1445312 L210.552734,21.1601562 L210.552734,29.8203125 L214.5,32.8515625 L218.707031,36.046875 L223.597656,38.9121094 L230.546875,42.5644531 L234.550781,45.21875 L240.962891,47.3320312 L240.962891,58.9199219 L226.736328,62.1777344 L220.863281,62.1777344 L214.5,58.9199219 L205.300781,54.09375 L202.107422,47.3320312 L199.847656,45.21875 L190.568359,45.21875 L187.310547,47.3320312 L187.310547,54.09375 L184.029297,58.9199219 L179.771484,62.1777344 L171.421875,65.5957031 L161.976562,67.6503906 L155.486328,71.0273438 L149.306641,74.0332031 L146.552734,78.40625 L146.552734,87.6757812 L149.306641,90.9589844 L152.15625,93.9941406 L164.513672,96.5117188 L174.888672,98.5703125 L179.771484,98.5703125 L184.029297,105.839844 L187.310547,109.349609 L187.310547,115.234375 L190.568359,117.435547 L192.738281,119.974609 L196.296875,115.234375 L199.847656,109.349609 L199.847656,80.8476562 L202.107422,74.0332031 L205.300781,71.0273438 L210.552734,67.6503906 L214.5,67.6503906 L218.707031,71.0273438 L223.597656,74.0332031 L226.736328,78.40625 L230.546875,80.8476562 L234.550781,80.8476562 L240.962891,78.40625 L246.695313,78.40625 L250.978516,83.3125 L260.396484,87.6757812 L262.894531,90.9589844 L268.412109,98.5703125 L275.583984,109.349609 L281.886719,115.234375 L288.455078,119.974609 L293.310547,125.488281 L293.310547,130.244141 L285.03125,133.146484 L275.583984,130.244141 L272.498047,125.488281 L272.498047,119.974609 L260.396484,119.974609 L250.978516,122.873047 L246.695313,125.488281 L246.695313,130.244141 L250.978516,133.146484 L250.978516,138.257812 L246.695313,143.787109 L240.962891,146.128906 L234.550781,148.708984 L230.546875,154.619141 L223.597656,159.357422 L218.707031,162.146484 L210.552734,164.980469 L205.300781,171.318359 L205.300781,177.982422 L202.107422,188.816406 L196.296875,197.525391 L190.568359,200.255859 L187.310547,205.617188 L179.771484,208.274414 L184.029297,213.414062 L184.029297,230.4375 L179.771484,233.449219 L174.888672,227.894531 L171.421875,220.695312 L166.886719,213.414062 L161.976562,210.927734 L155.486328,210.927734 L146.552734,213.414062 L132.482422,213.414062 L127.191406,216.994141 L124.265625,225.474609 L121.699219,233.449219 L121.699219,243.876953 L124.265625,250.431641 L127.191406,258.306641 L132.482422,261.773438 L140.058594,256.146484 L146.552734,250.431641 L152.15625,250.431641 L149.306641,256.146484 L149.306641,264.878906 L152.15625,271.195312 L158.039062,275.720703 L164.513672,278.53125 L166.886719,282.009766 L171.421875,286.279297 L147.62408,287 L146.552734,286.279297 L140.058594,282.009766 L132.482422,278.53125 L124.265625,275.720703 L115.769531,271.195312 L106.951172,267.041016 L97.03125,261.773438 L93.3964844,256.146484 L93.3964844,250.431641 L88.9609375,250.431641 L83.96875,243.876953 L80.2109375,240.125 L80.2109375,227.894531 L76.3730469,220.695312 L73.40625,216.994141 L68.6542969,216.994141 L68.6542969,230.4375 L65.8046875,225.474609 L61.8007813,220.695312 L58.7988281,213.414062 L55.1210938,205.617188 L52.4296875,197.525391 L49.2636719,186.667969 L46.4804688,177.982422 L46.4804688,146.128906 L44.0351562,135.703125 L44.0351562,130.244141 L40.765625,125.488281 L36.28125,122.873047 L34.3790423,122.873047 C47.5028864,100.56824 64.0033693,80.4886032 83.1779167,63.3367106 L88.9609375,65.5957031 L109.365234,65.5957031 L115.769531,62.1777344 L124.265625,58.9199219 L127.191406,58.9199219 L134.640625,56.5097656 L140.058594,54.09375 L142.996094,49.6816406 L146.552734,47.3320312 L146.552734,38.9121094 L149.306641,36.046875 L155.486328,38.9121094 L158.039062,42.5644531 L166.886719,42.5644531 L169.40625,36.046875 L171.421875,29.8203125 L174.888672,27.3515625 L177.380859,27.3515625 L184.029297,29.8203125 L190.568359,29.8203125 L190.568359,23.4980469 L187.310547,21.1601562 L184.029297,16.6992188 L177.380859,13.1445312 L171.880069,12.2013481 C196.182919,4.28151169 222.128958,0 249.074997,0 C282.888111,0 315.126588,6.74182712 344.519536,18.9545914 L344.519531,21.1601562 Z" id="north-america" fill="#3FDFA0"></path>
                <path d="M479.913861,156.560928 L476.492188,160.162109 L470.203125,168.017578 L462.570313,174.955078 L449.914063,184.857422 L441.912109,188.005859 L434.113281,188.005859 L431.816406,180.583984 L429.207031,174.955078 L425.019531,170.410156 L425.019531,180.583984 L419.378906,178.388672 L414.392578,168.017578 L412.005859,160.162109 L407.466797,156.634766 L403.898438,153.740234 L400.535156,156.634766 L400.535156,163.185547 L395.021484,168.017578 L395.021484,174.955078 L388.50293,180.583984 L377.373047,178.388672 L373.283203,174.955078 L369.472656,168.017578 L369.472656,160.162109 L373.283203,153.740234 L388.50293,153.740234 L389.65625,149.308594 L389.65625,144.039063 L384.060547,138.917969 L384.060547,132.402344 L389.65625,132.402344 L395.021484,125.525391 L395.021484,120.730469 L389.65625,111.138672 L389.65625,106.5625 L381.984375,102.416016 L381.984375,96.3320313 L384.060547,92.6796875 C385.576844,85.8891437 387.442079,81.5310708 389.65625,79.6054688 C391.25227,78.2174553 394.741412,75.9992941 400.247021,75.9992941 C400.439111,75.9992941 402.845703,74.3094252 407.466797,70.9296875 L416.421001,65.4637075 C443.895919,90.4793839 465.762734,121.547653 479.913861,156.560928 Z" id="Combined-Shape" fill="#3FDFA0"></path>
                <path d="M2.94636202,288.422846 C1.00655563,275.899194 0,263.067144 0,250 C0,112.481097 111.481097,1 249,1 C386.518903,1 498,112.481097 498,250 C498,263.067144 496.993444,275.899194 495.053638,288.422846 L2.94636202,288.422846 Z" id="Combined-Shape-Copy" fill-opacity="0.2" fill="#000000"></path>
                <polygon id="Path-4" fill="#32B280" points="349.671875 47.0253906 349.671875 52.7441406 354.384766 56.2246094 366.927734 58.4726562 375.972656 58.4726562 375.972656 52.7490234 369.345703 49.6503906 360.666016 47.0253906"></polygon>
            </g>
            <g id="centralized-nodes" transform="translate(36.000000, 47.000000)">
                <circle id="Oval-10" stroke="#32B280" stroke-width="3" fill="#FFFFFF" cx="10" cy="107" r="10"></circle>
                <circle id="Oval-10-Copy" stroke="#32B280" stroke-width="3" fill="#FFFFFF" cx="91" cy="197" r="10"></circle>
                <circle id="Oval-10-Copy-2" stroke="#32B280" stroke-width="3" fill="#FFFFFF" cx="331" cy="197" r="10"></circle>
                <g id="Oval-10-Copy-4">
                    <use fill="#ED495D" fill-rule="evenodd" xlink:href="#path-1"></use>
                    <circle stroke="#FFFFFF" stroke-width="6" cx="155.5" cy="99.5" r="18.5"></circle>
                </g>
                <circle id="Oval-10-Copy-6" stroke="#32B280" stroke-width="3" fill="#FFFFFF" cx="124" cy="10" r="10"></circle>
                <circle id="Oval-10-Copy-7" stroke="#32B280" stroke-width="3" fill="#FFFFFF" cx="124" cy="10" r="10"></circle>
                <circle id="Oval-10-Copy-5" stroke="#32B280" stroke-width="3" fill="#FFFFFF" cx="372" cy="45" r="10"></circle>
                <circle id="Oval-10-Copy-3" stroke="#32B280" stroke-width="3" fill="#FFFFFF" cx="428" cy="121" r="10"></circle>
                <path d="M180.804688,106.6875 C148.945553,109.904285 225.178515,157.085938 252.844207,169.265625 C271.288001,177.385417 297.787851,186.192708 332.343756,195.6875" id="Line-13-Copy" stroke-opacity="0.5" stroke="#FFFFFF" stroke-width="4" stroke-linecap="round" stroke-dasharray="4,12"></path>
                <path d="M332.5,193.5 L334,195" id="Line-14" stroke="#979797" stroke-linecap="square"></path>
                <path d="M178.5,85.5 C198.937474,71.6868544 226.492162,61.1686252 261.164062,53.9453125 C295.835963,46.7219998 332.281276,43.9068956 370.5,45.5" id="Line-20" stroke-opacity="0.5" stroke="#FFFFFF" stroke-width="4" stroke-linecap="round" stroke-dasharray="4,12"></path>
                <path d="M124.5,8.5 L146.5,73.5" id="Line-21" stroke-opacity="0.5" stroke="#FFFFFF" stroke-width="4" stroke-linecap="round" stroke-dasharray="4,12"></path>
                <path d="M11.5,107.5 C31.3514702,102.100268 52.3514702,98.4336018 74.5,96.5 C96.6485298,94.5663982 117.64853,94.5663982 137.5,96.5" id="Line-22" stroke-opacity="0.5" stroke="#FFFFFF" stroke-width="4" stroke-linecap="round" stroke-dasharray="4,12"></path>
                <path d="M92.5,196.5 C102.8191,174.870728 111.985767,158.300415 120,146.789063 C128.014233,135.27771 137.1809,125.514689 147.5,117.5" id="Line-23" stroke-opacity="0.5" stroke="#FFFFFF" stroke-width="4" stroke-linecap="round" stroke-dasharray="4,12"></path>
                <path d="M180.5,98.5 C223.34353,94.9982018 264.34353,94.9982018 303.5,98.5 C342.65647,102.001798 383.65647,109.335131 426.5,120.5" id="Line-24" stroke-opacity="0.5" stroke="#FFFFFF" stroke-width="4" stroke-linecap="round" stroke-dasharray="4,12"></path>
            </g>
        </g>
    </g>
</svg>

<svg width="499" height="289" xmlns="http://www.w3.org/2000/svg" xmlns:xlink="http://www.w3.org/1999/xlink"><defs><circle id="a" cx="155.5" cy="99.5" r="15.5"/></defs><g fill="none" fill-rule="evenodd"><path d="M498.282 235.225c.246 4.535.37 9.103.37 13.7A250.85 250.85 0 0 1 495.76 287H350.576l-.135-.164-3.486-5.024V253.08l-3.043-7.967v-7.717l3.043-4.865 3.486-4.068 4.758-8.2h3.516l5.476-9.083 5.278-5.649 3.029-4.908 2.379-5.316 3.078-8.182 2.996-3.965h21.727l6.472 3.965h2.954l6.806 8.182 2.765 5.316 6.71 4.908h9.898l2.272 5.649h4.453l19.416 13.547h14.992l11.762 3.736v4.068l7.104 2.694zM344.52 21.16l2.406 8.66v3.032l2.623 6.06-8.504 3.652-8.629 2.655-4.797 2.113-4.271 6.762v4.826l-2.446 6.676-3.486 2.054-8.559-2.054-5.841-3.418-9.705-3.258-11.424-2.41-6.303-6.828-3.086-7.118-4.086-9.712-11.426-9.354-10.29-6.799-19.96-3.554H214.5l-3.947 8.015v8.66l3.947 3.032 4.207 3.195 4.89 2.865 6.95 3.652 4.004 2.655 6.412 2.113V58.92l-14.227 3.258h-5.873L214.5 58.92l-9.2-4.826-3.193-6.762-2.26-2.113h-9.279l-3.257 2.113v6.762l-3.282 4.826-4.258 3.258-8.35 3.418-9.444 2.054-6.49 3.377-6.18 3.006-2.754 4.373v9.27l2.754 3.283 2.85 3.035 12.357 2.518 10.375 2.058h4.882l4.258 7.27 3.282 3.51v5.884l3.257 2.202 2.17 2.539 3.559-4.74 3.55-5.885V80.848l2.26-6.815 3.194-3.006 5.252-3.377h3.947l4.207 3.377 4.89 3.006 3.14 4.373 3.81 2.442h4.004l6.412-2.442h5.732l4.284 4.906 9.417 4.364 2.499 3.283 5.517 7.611 7.172 10.78 6.303 5.884 6.568 4.74 4.856 5.514v4.756l-8.28 2.902-9.447-2.902-3.086-4.756v-5.513h-12.102l-9.417 2.898-4.284 2.615v4.756l4.284 2.902v5.112l-4.284 5.53-5.732 2.34-6.412 2.581-4.004 5.91-6.95 4.738-4.89 2.79-8.154 2.833-5.252 6.338v6.664l-3.194 10.834-5.81 8.71-5.729 2.73-3.257 5.361-7.54 2.657 4.258 5.14v17.024l-4.258 3.011-4.882-5.554-3.467-7.2-4.535-7.28-4.91-2.487h-6.49l-8.934 2.486h-14.07l-5.292 3.58-2.925 8.48-2.567 7.975v10.428l2.567 6.555 2.925 7.875 5.291 3.466 7.577-5.627 6.494-5.714h5.603l-2.85 5.714v8.733l2.85 6.316 5.883 4.526 6.475 2.81 2.373 3.479 4.535 4.27-23.798.72-1.071-.72-6.494-4.27-7.577-3.479-8.216-2.81-8.496-4.526-8.819-4.154-9.92-5.268-3.635-5.627v-5.714h-4.435l-4.992-6.555-3.758-3.752v-12.23l-3.838-7.2-2.967-3.7h-4.752v13.442l-2.85-4.962-4.003-4.78-3.002-7.28-3.678-7.798-2.691-8.092-3.166-10.857-2.784-8.686V146.13l-2.445-10.426v-5.459l-3.27-4.756-4.484-2.615H34.38a250.076 250.076 0 0 1 48.799-59.536l5.783 2.259h20.404l6.405-3.418 8.496-3.258h2.925l7.45-2.41 5.418-2.416 2.937-4.412 3.557-2.35v-8.42l2.754-2.865 6.18 2.865 2.552 3.652h8.848l2.52-6.517 2.015-6.227 3.467-2.468h2.492l6.648 2.468h6.54v-6.322l-3.258-2.338-3.282-4.46-6.648-3.555-5.5-.944C196.182 4.281 222.128 0 249.074 0c33.813 0 66.052 6.742 95.445 18.955v2.205zM479.914 156.56l-3.422 3.602-6.289 7.856-7.633 6.937-12.656 9.902-8.002 3.149h-7.799l-2.297-7.422-2.609-5.629-4.187-4.545v10.174l-5.641-2.195-4.986-10.371-2.387-7.856-4.54-3.527-3.568-2.895-3.363 2.895v6.55l-5.514 4.833v6.937l-6.518 5.629-11.13-2.195-4.09-3.434-3.81-6.937v-7.856l3.81-6.422h15.22l1.153-4.431v-5.27l-5.595-5.121v-6.516h5.595l5.365-6.877v-4.795l-5.365-9.591v-4.576l-7.672-4.147v-6.084l2.077-3.652c1.516-6.79 3.381-11.149 5.595-13.075 1.596-1.388 5.085-3.606 10.591-3.606.192 0 2.599-1.69 7.22-5.07l8.954-5.465c27.475 25.015 49.342 56.084 63.493 91.097z" fill="#3FDFA0"/><path d="M2.946 288.423A250.901 250.901 0 0 1 0 250C0 112.481 111.481 1 249 1s249 111.481 249 249c0 13.067-1.007 25.9-2.946 38.423H2.946z" fill-opacity=".2" fill="#000"/><path fill="#32B280" d="M349.672 47.025v5.72l4.713 3.48 12.543 2.248h9.045v-5.724l-6.627-3.099-8.68-2.625z"/><g transform="translate(36 47)"><circle stroke="#32B280" stroke-width="3" fill="#FFF" cx="10" cy="107" r="10"/><circle stroke="#32B280" stroke-width="3" fill="#FFF" cx="91" cy="197" r="10"/><circle stroke="#32B280" stroke-width="3" fill="#FFF" cx="331" cy="197" r="10"/><use fill="#ED495D" xlink:href="#a"/><circle stroke="#FFF" stroke-width="6" cx="155.5" cy="99.5" r="18.5"/><circle stroke="#32B280" stroke-width="3" fill="#FFF" cx="124" cy="10" r="10"/><circle stroke="#32B280" stroke-width="3" fill="#FFF" cx="124" cy="10" r="10"/><circle stroke="#32B280" stroke-width="3" fill="#FFF" cx="372" cy="45" r="10"/><circle stroke="#32B280" stroke-width="3" fill="#FFF" cx="428" cy="121" r="10"/><path d="M180.805 106.688c-31.86 3.216 44.374 50.398 72.04 62.578 18.443 8.12 44.943 16.927 79.499 26.422" stroke-opacity=".5" stroke="#FFF" stroke-width="4" stroke-linecap="round" stroke-dasharray="4,12"/><path d="M332.5 193.5l1.5 1.5" stroke="#979797" stroke-linecap="square"/><path d="M178.5 85.5c20.437-13.813 47.992-24.331 82.664-31.555 34.672-7.223 71.117-10.038 109.336-8.445M124.5 8.5l22 65M11.5 107.5c19.851-5.4 40.851-9.066 63-11 22.149-1.934 43.149-1.934 63 0M92.5 196.5c10.32-21.63 19.486-38.2 27.5-49.71 8.014-11.512 17.18-21.275 27.5-29.29M180.5 98.5c42.844-3.502 83.844-3.502 123 0 39.156 3.502 80.156 10.835 123 22" stroke-opacity=".5" stroke="#FFF" stroke-width="4" stroke-linecap="round" stroke-dasharray="4,12"/></g></g></svg>
